dist/img/ic-tik.svg

<svg width="14" height="16" viewBox="0 0 14 16" fill="none" xmlns="http://www.w3.org/2000/svg">
<path d="M7.35389 0.0135C8.22639 0 9.09389 0.008 9.96039 0C10.0129 1.0205 10.3799 2.06 11.1269 2.7815C11.8724 3.521 12.9269 3.8595 13.9529 3.974V6.6585C12.9914 6.627 12.0254 6.427 11.1529 6.013C10.7729 5.841 10.4189 5.6195 10.0724 5.393C10.0679 7.341 10.0804 9.2865 10.0599 11.2265C10.0079 12.1585 9.70039 13.086 9.15839 13.854C8.28639 15.1325 6.77289 15.966 5.21839 15.992C4.26489 16.0465 3.31239 15.7865 2.49989 15.3075C1.15339 14.5135 0.205891 13.06 0.0678907 11.5C0.0505081 11.1696 0.0478388 10.8386 0.0598907 10.508C0.179891 9.2395 0.807391 8.026 1.78139 7.2005C2.88539 6.239 4.43189 5.781 5.87989 6.052C5.89339 7.0395 5.85389 8.026 5.85389 9.0135C5.19239 8.7995 4.41939 8.8595 3.84139 9.261C3.41851 9.53958 3.09894 9.94945 2.93189 10.4275C2.79389 10.7655 2.83339 11.141 2.84139 11.5C2.99989 12.594 4.05189 13.5135 5.17489 13.414C5.91939 13.406 6.63289 12.974 7.02089 12.3415C7.14639 12.12 7.28689 11.8935 7.29439 11.633C7.35989 10.4405 7.33389 9.253 7.34189 8.0605C7.34739 5.373 7.33389 2.693 7.35439 0.014L7.35389 0.0135Z" fill="#CCB69F"/>
</svg>

<svg width="14" height="16" viewBox="0 0 14 16" xmlns="http://www.w3.org/2000/svg"><path d="M7.354.013C8.226 0 9.094.009 9.96 0c.053 1.02.42 2.06 1.167 2.781.745.74 1.8 1.079 2.826 1.193v2.684c-.962-.031-1.928-.231-2.8-.645a8.102 8.102 0 01-1.08-.62c-.005 1.948.007 3.894-.013 5.833a5.075 5.075 0 01-.902 2.628c-.872 1.279-2.385 2.112-3.94 2.138-.953.055-1.906-.206-2.718-.685C1.153 14.514.206 13.06.068 11.5a11.15 11.15 0 01-.008-.992 4.998 4.998 0 011.72-3.307c1.104-.962 2.65-1.42 4.099-1.149.013.988-.026 1.974-.026 2.962-.662-.214-1.435-.154-2.013.247a2.309 2.309 0 00-.91 1.167c-.137.337-.098.713-.09 1.072.159 1.094 1.21 2.014 2.334 1.914.744-.008 1.458-.44 1.846-1.072.125-.222.266-.449.273-.709.066-1.192.04-2.38.048-3.572.005-2.688-.008-5.368.012-8.047z"/></svg>
